dist/assets/quiz.svg

<svg width="20" height="21" viewBox="0 0 20 21" fill="none" xmlns="http://www.w3.org/2000/svg">
<g id="quiz">
<mask id="mask0_0_877" style="mask-type:alpha" maskUnits="userSpaceOnUse" x="0" y="0" width="20" height="21">
<rect id="Bounding box" y="0.5" width="20" height="20" fill="#D9D9D9"/>
</mask>
<g mask="url(#mask0_0_877)">
<path id="quiz_2" d="M11.6296 12.8007C11.8657 12.8007 12.0636 12.7209 12.2233 12.5611C12.383 12.4014 12.4629 12.2035 12.4629 11.9674C12.4629 11.7313 12.383 11.5334 12.2233 11.3736C12.0636 11.2139 11.8657 11.134 11.6296 11.134C11.3934 11.134 11.1955 11.2139 11.0358 11.3736C10.8761 11.5334 10.7962 11.7313 10.7962 11.9674C10.7962 12.2035 10.8761 12.4014 11.0358 12.5611C11.1955 12.7209 11.3934 12.8007 11.6296 12.8007ZM11.0254 10.3437H12.2337C12.2337 9.98082 12.2675 9.70923 12.3349 9.52896C12.4024 9.34871 12.5512 9.1505 12.7813 8.93432C13.0696 8.65986 13.3292 8.38208 13.56 8.10098C13.7909 7.81989 13.9063 7.46738 13.9063 7.04346C13.9063 6.41182 13.696 5.90669 13.2755 5.52807C12.855 5.14944 12.3012 4.96013 11.6141 4.96013C11.0833 4.96013 10.6096 5.1086 10.193 5.40554C9.77628 5.7025 9.48628 6.11047 9.32293 6.62944L10.4063 7.08015C10.5002 6.76734 10.6548 6.52677 10.87 6.35844C11.0853 6.19012 11.3333 6.10596 11.6141 6.10596C11.9388 6.10596 12.2005 6.19541 12.3995 6.37429C12.5985 6.5532 12.6979 6.78516 12.6979 7.07019C12.6979 7.36345 12.5903 7.61844 12.375 7.83515C12.1597 8.05186 11.934 8.27241 11.6979 8.49682C11.4123 8.7613 11.2288 9.01145 11.1474 9.24727C11.0661 9.48308 11.0254 9.84857 11.0254 10.3437ZM6.67439 15.5548C6.19546 15.5548 5.78753 15.3863 5.4506 15.0494C5.11368 14.7125 4.94522 14.3045 4.94522 13.8256V3.94519C4.94522 3.46626 5.11368 3.05833 5.4506 2.7214C5.78753 2.38447 6.19546 2.216 6.67439 2.216H16.5548C17.0337 2.216 17.4417 2.38447 17.7786 2.7214C18.1155 3.05833 18.284 3.46626 18.284 3.94519V13.8256C18.284 14.3045 18.1155 14.7125 17.7786 15.0494C17.4417 15.3863 17.0337 15.5548 16.5548 15.5548H6.67439ZM6.67439 13.8256H16.5548V3.94519H6.67439V13.8256ZM3.44522 18.7839C2.96629 18.7839 2.55836 18.6155 2.22143 18.2786C1.8845 17.9416 1.71603 17.5337 1.71603 17.0548V5.44519H3.44522V17.0548H15.0548V18.7839H3.44522Z" fill="#1C4980"/>
</g>
</g>
</svg>

<svg xmlns="http://www.w3.org/2000/svg" width="20" height="21" fill="none"><mask id="a" width="20" height="21" x="0" y="0" maskUnits="userSpaceOnUse" style="mask-type:alpha"><path fill="#D9D9D9" d="M0 .5h20v20H0z"/></mask><g mask="url(#a)"><path fill="#1C4980" d="M11.63 12.8c.236 0 .434-.08.593-.239.16-.16.24-.357.24-.594a.807.807 0 0 0-.24-.593.806.806 0 0 0-.593-.24.806.806 0 0 0-.594.24.807.807 0 0 0-.24.593c0 .236.08.434.24.594.16.16.357.24.594.24Zm-.605-2.456h1.209c0-.363.034-.635.1-.815.068-.18.217-.379.447-.595a9.32 9.32 0 0 0 .779-.833c.23-.281.346-.634.346-1.058 0-.631-.21-1.136-.63-1.515-.421-.379-.975-.568-1.662-.568-.53 0-1.004.149-1.421.446a2.305 2.305 0 0 0-.87 1.223l1.083.451c.094-.313.249-.553.464-.722.215-.168.463-.252.744-.252.325 0 .586.09.785.268.2.18.299.411.299.696 0 .293-.108.548-.323.765-.215.217-.441.437-.677.662-.286.264-.47.514-.55.75-.082.236-.123.602-.123 1.097Zm-4.35 5.21c-.48 0-.887-.168-1.224-.505a1.667 1.667 0 0 1-.506-1.223v-9.88c0-.48.169-.888.506-1.225a1.667 1.667 0 0 1 1.223-.505h9.88c.48 0 .888.168 1.225.505.337.337.505.745.505 1.224v9.88c0 .48-.168.888-.505 1.224a1.667 1.667 0 0 1-1.224.506h-9.88Zm0-1.728h9.88v-9.88h-9.88v9.88Zm-3.23 4.958c-.479 0-.887-.168-1.224-.505a1.667 1.667 0 0 1-.505-1.224V5.445h1.73v11.61h11.609v1.729H3.445Z"/></g></svg>
